icons/numbers-line.svg

<svg width="24" height="24" fill="none" xmlns="http://www.w3.org/2000/svg"><g clip-path="url(#a)"><path d="M9 18H4v-8h5v8Zm-2-2v-4H6v4h1Zm6 0V8h-1v8h1Zm2 2h-5V6h5v12Zm4-2V4h-1v12h1Zm2 2h-5V2h5v16Zm1 4H3v-2h19v2Z" /></g><defs><clipPath id="a"><path fill="#fff" d="M0 0h24v24H0z"/></clipPath></defs></svg>

<svg xmlns="http://www.w3.org/2000/svg" width="24" height="24" fill="none"><g clip-path="url(#a)"><g><path fill="#121212" d="M9 18H4V10H9V18ZM7 16V12H6V16H7ZM13 16V8H12V16H13ZM15 18H10V6H15V18ZM19 16V4H18V16H19ZM21 18H16V2H21V18ZM22 22H3V20H22V22Z"/></g></g><defs><clipPath id="a"><rect width="24" height="24" fill="white"/></clipPath></defs></svg>
